docs/inc/icons/file.svg

<svg height="16" viewBox="0 0 12 16" width="12" xmlns="http://www.w3.org/2000/svg"><path d="m6 5h-4v-1h4zm-4 3h7v-1h-7zm0 2h7v-1h-7zm0 2h7v-1h-7zm10-7.5v9.5c0 .55-.45 1-1 1h-10c-.55 0-1-.45-1-1v-12c0-.55.45-1 1-1h7.5zm-1 .5-3-3h-7v12h10z" fill-rule="evenodd"/></svg>

<svg xmlns="http://www.w3.org/2000/svg" width="12" height="16" viewBox="0 0 12 16"><path fill-rule="evenodd" d="M6 5H2V4h4v1zM2 8h7V7H2v1zm0 2h7V9H2v1zm0 2h7v-1H2v1zm10-7.5V14c0 .55-.45 1-1 1H1c-.55 0-1-.45-1-1V2c0-.55.45-1 1-1h7.5L12 4.5zM11 5L8 2H1v12h10V5z"/></svg>
